icons/sagui.svg

<?xml version="1.0" encoding="UTF-8" standalone="no"?>
<svg width="256px" height="221px" viewBox="0 0 256 221" version="1.1" xmlns="http://www.w3.org/2000/svg" xmlns:xlink="http://www.w3.org/1999/xlink" preserveAspectRatio="xMidYMid">
    <g>
        <path d="M229.751119,133.348846 C245.961409,126.526183 256.887199,112.515587 255.943282,94.3217813 C255.681187,89.2695608 254.553481,84.2707154 252.676991,79.5815549 C250.944507,75.252314 248.151829,71.6286583 246.16421,67.4669768 C242.074401,58.9037211 240.197649,49.4025641 236.806705,40.5627176 C222.219292,2.53464029 174.387228,-8.9991873 139.821602,6.99556611 C124.310675,14.1730349 112.335327,27.0178258 104.681002,42.2617529 C116.540231,38.1449025 129.967166,40.5421301 139.718127,48.4905364 C139.334846,49.0197916 138.961281,49.5522654 138.60514,50.0917879 C122.331694,38.0420456 98.5794415,43.6540576 89.1472297,61.5922575 C80.0298399,78.9317036 88.0025078,101.140416 105.960197,108.653945 C116.839285,113.205777 129.586564,111.57085 138.981369,104.41059 C139.385854,104.905971 139.805807,105.390633 140.235146,105.864088 C129.29603,115.114302 113.540262,117.134375 100.672728,110.866073 C105.334767,118.391498 111.869383,124.577915 119.320592,129.240818 C113.803735,139.322526 110.060772,150.679402 109.795869,162.263956 C109.555057,172.794664 110.11912,184.167596 113.897008,194.099973 C104.307489,193.86514 93.3179822,192.038832 86.5788723,184.456984 C80.2134324,177.295519 78.9914947,166.818386 79.0058715,157.591541 C79.0235964,146.214926 81.518086,135.320457 83.0309508,124.123219 C84.5372765,112.97435 83.5641594,101.302783 78.8406084,91.0083653 C69.3369058,70.296193 43.736969,58.1246093 22.4182842,67.8694755 C1.57783705,77.3957239 -8.50329865,105.895631 8.86872397,123.685296 C15.9406243,130.927202 26.7050567,134.761341 36.5632805,131.785695 C45.8003855,128.997507 53.1697455,120.588616 54.1085225,110.792202 C55.0456054,101.013461 48.3885097,90.7637557 38.5916478,88.7534732 C33.6253822,87.734416 28.8387112,91.5002213 29.1806137,96.7664104 C29.329675,99.0624105 30.5384165,101.227786 32.4121759,102.547254 C34.4918801,104.011735 37.1362449,103.920086 38.3964296,106.482211 C40.8040993,111.377324 35.3849195,116.603848 30.9453898,117.311102 C25.5971369,118.163157 20.1283669,114.335801 17.4381139,109.913374 C11.194983,99.6504601 18.4474165,86.8676561 28.2035634,82.1385524 C37.5732848,77.5967613 48.8312084,80.2848874 56.6685745,86.7210674 C63.4545641,92.2938266 67.1656805,100.632225 68.1457567,109.286601 C69.3725785,120.119798 66.104069,130.80911 64.8059273,141.489996 C63.5095376,152.156468 63.002241,163.189935 65.2047074,173.773448 C67.240533,183.556204 71.8809202,192.668269 79.6877333,199.008335 C87.4850018,205.340691 97.3465663,208.196576 107.176016,209.147248 C113.338918,209.743299 119.555323,209.62624 125.719762,209.11593 C128.583773,210.900798 131.936049,212.274398 135.839403,213.216511 C137.236347,217.782148 141.431757,220.965787 146.249369,220.965787 L243.98839,220.965787 C256.067015,220.965787 256.145058,206.204429 254.641292,197.547219 C253.079993,188.558625 248.49475,180.244589 240.883069,175.106959 C240.826585,159.10533 236.290132,146.0422 229.751119,133.348846 L229.751119,133.348846 L229.751119,133.348846 Z M132.307356,90.5480524 C129.446746,93.5564213 125.433221,95.4401454 120.98471,95.4401454 C112.322972,95.4401454 105.276576,88.3302816 105.276576,79.5904972 C105.276576,70.850712 112.322972,63.7408482 120.98471,63.7408482 C125.271148,63.7408482 129.158196,65.4859591 131.995264,68.30414 C131.498149,71.8158377 131.252047,75.7095129 131.252047,80.1215005 C131.252047,84.0173223 131.620164,87.4617599 132.307356,90.5480524 L132.307356,90.5480524 L132.307356,90.5480524 Z M168.40885,91.6305284 C169.964675,83.5817695 175.522405,76.5720867 178.993504,69.2623902 C182.034069,62.8593297 183.975893,55.8228593 188.025866,49.960249 C195.361088,39.3420387 207.835625,32.9827629 220.665897,33.5576043 C227.080416,42.4300803 229.347854,53.1749935 232.864947,63.3772055 C234.410597,67.8607584 236.089065,72.3051903 238.623693,76.3235552 C241.616072,81.067589 243.881699,86.0307173 244.719817,91.6392591 L242.056151,90.777573 C238.088974,89.1636426 235.553979,95.3159594 238.16615,97.9516899 L243.29567,103.127408 C243.580951,103.415259 243.901288,103.640011 244.234283,103.835696 C239.726505,121.648902 218.734578,126.854891 202.979597,128.44051 C184.668587,127.246103 164.438784,112.169312 168.40885,91.6305284 L168.40885,91.6305284 L168.40885,91.6305284 Z M220.850316,208.317291 L147.685831,208.317291 L147.67626,208.317291 L147.656565,208.317291 C147.406261,205.77827 147.096454,203.45066 148.684354,201.329161 C150.438201,198.985946 153.36568,197.458088 155.927407,196.222028 C163.74802,192.448458 172.515845,190.433977 181.025239,189.016924 C189.770928,187.560526 199.868498,186.037754 208.480948,188.857233 C216.686377,191.543465 222.17045,199.446444 220.850316,208.317291 L220.850316,208.317291 L220.850316,208.317291 Z M224.199402,204.887346 C223.397652,192.951271 214.598946,185.638832 203.202669,184.382848 C210.561893,183.834702 218.645374,183.833986 224.704447,188.738585 C230.230981,193.212123 232.711436,201.348345 231.724085,208.317291 L224.142524,208.317291 C224.277182,207.175186 224.276447,206.033399 224.199402,204.887346 L224.199402,204.887346 L224.199402,204.887346 Z M233.771419,196.629641 C231.413569,189.211563 225.608345,183.9622 218.204061,181.9496 C225.426525,181.750218 232.841707,183.190932 237.667853,189.083747 C241.820921,194.15474 243.486574,201.84766 242.60954,208.317291 L235.014744,208.317291 C235.469004,204.452946 234.945866,200.324464 233.771419,196.629641 L233.771419,196.629641 L233.771419,196.629641 Z M232.261245,173.763168 C232.261245,176.085929 232.070655,178.440088 231.635118,180.722125 C227.437437,178.994805 222.906367,178.504181 218.405969,178.655393 C214.838773,165.98109 216.703945,151.833775 223.827491,140.744084 C228.568084,150.952362 232.261245,162.381094 232.261245,173.763168 L232.261245,173.763168 L232.261245,173.763168 Z M208.382869,79.1045492 C208.169643,72.1223551 211.981918,66.3383046 216.89787,66.185384 C221.813822,66.0325296 225.971826,71.5688037 226.185078,78.550997 C226.398356,85.5331776 222.586108,91.3172281 217.670156,91.4701487 C212.754204,91.6230039 208.596173,86.0867298 208.382869,79.1045492 L208.382869,79.1045492 L208.382869,79.1045492 Z" fill="#753F8C"></path>
    </g>
</svg>

<svg xmlns="http://www.w3.org/2000/svg" viewBox="0 0 256 220.966">
  <path fill="#753f8c" d="M229.751 133.349c16.21-6.823 27.136-20.833 26.192-39.027-.262-5.052-1.39-10.051-3.266-14.74-1.732-4.33-4.525-7.953-6.513-12.115-4.09-8.563-5.966-18.064-9.357-26.904C222.219 2.535 174.387-9 139.822 6.996c-15.511 7.177-27.487 20.022-35.141 35.266 11.86-4.117 25.286-1.72 35.037 6.229-.383.529-.757 1.061-1.113 1.6-16.273-12.049-40.026-6.437-49.458 11.501-9.117 17.34-1.144 39.548 16.813 47.062 10.88 4.552 23.627 2.917 33.021-4.243.405.495.825.98 1.254 1.453-10.939 9.25-26.695 11.27-39.562 5.002 4.662 7.526 11.196 13.712 18.648 18.375-5.517 10.082-9.26 21.438-9.525 33.023-.24 10.53.323 21.904 4.101 31.836-9.59-.235-20.579-2.061-27.318-9.643-6.366-7.161-7.588-17.639-7.573-26.865.018-11.377 2.512-22.272 4.025-33.469 1.506-11.149.533-22.82-4.19-33.115-9.504-20.712-35.104-32.883-56.423-23.139-20.84 9.527-30.921 38.027-13.55 55.816 7.073 7.242 17.837 11.076 27.695 8.1 9.237-2.787 16.607-11.196 17.546-20.993.937-9.779-5.72-20.028-15.517-22.039-4.967-1.019-9.753 2.747-9.411 8.013a7.748 7.748 0 0 0 3.231 5.781c2.08 1.465 4.724 1.373 5.984 3.935 2.408 4.895-3.011 10.122-7.45 10.83-5.349.851-10.818-2.976-13.508-7.399-6.243-10.263 1.01-23.045 10.766-27.774 9.37-4.542 20.627-1.854 28.465 4.582 6.786 5.573 10.497 13.911 11.477 22.566 1.227 10.833-2.042 21.522-3.34 32.203-1.296 10.666-1.804 21.7.399 32.283 2.036 9.783 6.676 18.895 14.483 25.235 7.797 6.333 17.659 9.189 27.488 10.14 6.163.595 12.38.478 18.544-.032 2.864 1.785 6.216 3.158 10.12 4.1 1.396 4.566 5.592 7.75 10.41 7.75h97.738c12.079 0 12.157-14.762 10.653-23.419-1.561-8.988-6.146-17.302-13.758-22.44-.056-16.002-4.593-29.065-11.132-41.758zm-97.444-42.8c-2.86 3.007-6.874 4.891-11.322 4.891-8.662 0-15.708-7.11-15.708-15.85 0-8.74 7.046-15.85 15.708-15.85 4.286 0 8.173 1.746 11.01 4.564-.497 3.512-.743 7.406-.743 11.818 0 3.895.368 7.34 1.055 10.426zm36.102 1.082c1.556-8.05 7.113-15.059 10.584-22.369 3.041-6.403 4.983-13.44 9.033-19.302 7.335-10.618 19.81-16.977 32.64-16.402 6.414 8.872 8.682 19.617 12.199 29.82 1.546 4.483 3.224 8.927 5.759 12.946 2.992 4.744 5.258 9.707 6.096 15.315l-2.664-.861c-3.967-1.614-6.502 4.538-3.89 7.174l5.13 5.175c.285.288.605.513.938.709-4.507 17.813-25.5 23.019-41.254 24.605-18.311-1.195-38.541-16.272-34.571-36.81zm52.441 116.686h-73.194c-.25-2.539-.56-4.866 1.028-6.988 1.754-2.343 4.681-3.87 7.243-5.107 7.82-3.774 16.588-5.788 25.098-7.205 8.745-1.456 18.843-2.98 27.456-.16 8.205 2.686 13.689 10.59 12.369 19.46zm3.35-3.43c-.802-11.936-9.601-19.248-20.997-20.504 7.359-.548 15.442-.549 21.501 4.356 5.527 4.473 8.007 12.61 7.02 19.578h-7.581c.134-1.142.133-2.284.056-3.43zm9.571-8.257c-2.357-7.418-8.163-12.668-15.567-14.68 7.223-.2 14.638 1.24 19.464 7.134 4.153 5.07 5.819 12.764 4.942 19.233h-7.595c.454-3.864-.07-7.993-1.244-11.687zm-1.51-22.867c0 2.323-.19 4.677-.626 6.96-4.198-1.728-8.729-2.219-13.229-2.068-3.567-12.674-1.702-26.821 5.421-37.91 4.741 10.207 8.434 21.636 8.434 33.018zm-23.878-94.658c-.213-6.983 3.599-12.767 8.515-12.92 4.916-.152 9.074 5.384 9.287 12.366.213 6.982-3.599 12.766-8.515 12.92-4.916.152-9.074-5.384-9.287-12.366z"/>
</svg>
